src/content/docs/images/themes.svg

<svg width="512" height="195" viewBox="0 0 512 195" fill="none" xmlns="http://www.w3.org/2000/svg">
<g clip-path="url(#clip0_9781_5602)">
<rect width="512" height="195" fill="#1A1A22"/>
<g style="mix-blend-mode:soft-light" opacity="0.3">
<path d="M334.717 104.931C267.606 149.666 226.46 205.822 158.554 103.949C90.6485 2.07477 90.0045 -116.775 157.116 -161.509C224.228 -206.244 333.681 -159.923 401.587 -58.0494C469.493 43.8243 401.829 60.1967 334.717 104.931Z" fill="white"/>
</g>
<g style="mix-blend-mode:soft-light" opacity="0.3">
<path d="M354.451 134.537C287.34 179.271 246.194 235.428 178.288 133.554C110.382 31.6801 109.739 -87.1694 176.85 -131.904C243.962 -176.638 353.415 -130.318 421.321 -28.4441C489.227 73.4296 421.563 89.8021 354.451 134.537Z" fill="white"/>
</g>
<g style="mix-blend-mode:soft-light" opacity="0.3">
<path d="M374.185 164.141C307.073 208.876 265.928 265.032 198.022 163.159C130.116 61.285 129.472 -57.5645 196.584 -102.299C263.695 -147.033 373.149 -100.713 441.055 1.16076C508.961 103.035 441.296 119.407 374.185 164.141Z" fill="white"/>
</g>
<g style="mix-blend-mode:soft-light" opacity="0.3">
<path d="M393.919 193.747C326.808 238.482 285.662 294.638 217.756 192.765C149.85 90.8908 149.207 -27.9587 216.318 -72.6932C283.43 -117.428 392.883 -71.1071 460.789 30.7666C528.695 132.64 461.031 149.013 393.919 193.747Z" fill="white"/>
</g>
<g style="mix-blend-mode:soft-light" opacity="0.3">
<path d="M413.653 223.353C346.542 268.087 305.396 324.244 237.491 222.37C169.585 120.496 168.941 1.64667 236.052 -43.0878C303.164 -87.8223 412.617 -41.5018 480.523 60.3719C548.429 162.246 480.765 178.618 413.653 223.353Z" fill="white"/>
</g>
<g style="mix-blend-mode:soft-light" opacity="0.3">
<path d="M433.387 252.957C366.275 297.692 325.13 353.848 257.224 251.975C189.318 150.101 188.674 31.2515 255.786 -13.483C322.897 -58.2175 432.351 -11.8969 500.257 89.9768C568.163 191.851 500.498 208.223 433.387 252.957Z" fill="white"/>
</g>
<g style="mix-blend-mode:soft-light" opacity="0.3">
<path d="M453.121 282.563C386.009 327.297 344.864 383.454 276.958 281.58C209.052 179.706 208.408 60.8569 275.52 16.1224C342.631 -28.6121 452.085 17.7084 519.991 119.582C587.897 221.456 520.232 237.828 453.121 282.563Z" fill="white"/>
</g>
<path d="M47.9999 27.9999C59.0443 27.9999 67.9999 35.9554 67.9999 45.7777C67.9999 51.9111 63.0221 56.8887 56.8887 56.8887H52.9555C51.1111 56.8887 49.6221 58.3777 49.6221 60.2221C49.6221 61.0665 49.9555 61.8443 50.4665 62.4221C50.9999 63.0221 51.3333 63.7999 51.3333 64.6665C51.3333 66.5111 49.7999 67.9999 47.9999 67.9999C36.9554 67.9999 27.9999 59.0443 27.9999 47.9999C27.9999 36.9554 36.9554 27.9999 47.9999 27.9999ZM45.6221 60.2221C45.6221 56.1685 48.9019 52.8887 52.9555 52.8887H56.8887C60.8129 52.8887 63.9999 49.7019 63.9999 45.7777C63.9999 38.2783 56.9353 31.9999 47.9999 31.9999C39.1646 31.9999 31.9999 39.1646 31.9999 47.9999C31.9999 56.3799 38.4451 63.2569 46.6479 63.9435C45.9895 62.8335 45.6221 61.5521 45.6221 60.2221ZM38.9999 47.9999C37.343 47.9999 35.9999 46.6567 35.9999 44.9999C35.9999 43.343 37.343 41.9999 38.9999 41.9999C40.6567 41.9999 41.9999 43.343 41.9999 44.9999C41.9999 46.6567 40.6567 47.9999 38.9999 47.9999ZM56.9999 47.9999C55.3431 47.9999 53.9999 46.6567 53.9999 44.9999C53.9999 43.343 55.3431 41.9999 56.9999 41.9999C58.6567 41.9999 59.9999 43.343 59.9999 44.9999C59.9999 46.6567 58.6567 47.9999 56.9999 47.9999ZM47.9999 41.9999C46.3431 41.9999 44.9999 40.6567 44.9999 38.9999C44.9999 37.343 46.3431 35.9999 47.9999 35.9999C49.6567 35.9999 50.9999 37.343 50.9999 38.9999C50.9999 40.6567 49.6567 41.9999 47.9999 41.9999Z" fill="white"/>
</g>
<defs>
<clipPath id="clip0_9781_5602">
<rect width="512" height="195" fill="white"/>
</clipPath>
</defs>
</svg>

<svg xmlns="http://www.w3.org/2000/svg" width="512" height="195" fill="none" viewBox="0 0 512 195"><g clip-path="url(#a)"><path fill="#1a1a22" d="M0 0h512v195H0z"/><path fill="#fff" d="M334.717 104.931c-67.111 44.735-108.257 100.891-176.163-.982-67.905-101.874-68.55-220.724-1.438-265.458s176.565 1.586 244.471 103.46.242 118.246-66.87 162.98" opacity=".3" style="mix-blend-mode:soft-light"/><path fill="#fff" d="M354.451 134.537c-67.111 44.734-108.257 100.891-176.163-.983s-68.549-220.723-1.438-265.458c67.112-44.734 176.565 1.586 244.471 103.46s.242 118.246-66.87 162.981" opacity=".3" style="mix-blend-mode:soft-light"/><path fill="#fff" d="M374.185 164.141c-67.112 44.735-108.257 100.891-176.163-.982s-68.55-220.723-1.438-265.458c67.111-44.734 176.565 1.586 244.471 103.46s.241 118.246-66.87 162.98" opacity=".3" style="mix-blend-mode:soft-light"/><path fill="#fff" d="M393.919 193.747c-67.111 44.735-108.257 100.891-176.163-.982s-68.549-220.724-1.438-265.458 176.565 1.586 244.471 103.46.242 118.246-66.87 162.98" opacity=".3" style="mix-blend-mode:soft-light"/><path fill="#fff" d="M413.653 223.353c-67.111 44.734-108.257 100.891-176.162-.983-67.906-101.874-68.55-220.723-1.439-265.458 67.112-44.734 176.565 1.586 244.471 103.46s.242 118.246-66.87 162.981" opacity=".3" style="mix-blend-mode:soft-light"/><path fill="#fff" d="M433.387 252.957c-67.112 44.735-108.257 100.891-176.163-.982s-68.55-220.723-1.438-265.458c67.111-44.734 176.565 1.586 244.471 103.46s.241 118.246-66.87 162.98" opacity=".3" style="mix-blend-mode:soft-light"/><path fill="#fff" d="M453.121 282.563c-67.112 44.734-108.257 100.891-176.163-.983s-68.55-220.723-1.438-265.458c67.111-44.734 176.565 1.586 244.471 103.46s.241 118.246-66.87 162.981" opacity=".3" style="mix-blend-mode:soft-light"/><path fill="#fff" d="M48 28c11.044 0 20 7.955 20 17.778 0 6.133-4.978 11.11-11.111 11.11h-3.934a3.33 3.33 0 0 0-3.333 3.334c0 .844.334 1.622.845 2.2.533.6.866 1.378.866 2.245C51.333 66.51 49.8 68 48 68c-11.045 0-20-8.956-20-20s8.955-20 20-20m-2.378 32.222a7.33 7.33 0 0 1 7.334-7.333h3.933a7.115 7.115 0 0 0 7.11-7.111C64 38.278 56.936 32 48 32c-8.834 0-16 7.165-16 16 0 8.38 6.446 15.257 14.649 15.944a7.3 7.3 0 0 1-1.026-3.722M39 48a3 3 0 1 1 0-6 3 3 0 0 1 0 6m18 0a3 3 0 1 1 0-6 3 3 0 0 1 0 6m-9-6a3 3 0 1 1 0-6 3 3 0 0 1 0 6"/></g><defs><clipPath id="a"><path fill="#fff" d="M0 0h512v195H0z"/></clipPath></defs></svg>
